X:4
T:Blackthorn Stick, The
S:The Session: https://thesession.org/tunes/702#setting49484
C:Traditional
R:jig
K:G
M:6/8
L:1/8
Q:1/4=113
d|:"G"gfg "C"ege|"G"dBG "C"AGE|"G"DGG "D7"FGA|"G"BGB"D7" A2 d|
|"G"gfg "C"age|"G"dBG "C"AGE|"G"DGG "D7"FGA| "G"BGG G2 d:|
|:"G"edd gdd|edd gdd|e2 e "C"gfg|"G"edB "D7"A2 d|
|"G"gfg "C"age|"G"dBG "C"AGE|"G"DGG "D7"FGA|1"G"BGG G2 d:||2"G"BGG G3||

